Flat Remix Light/panel/indicator-keyboard-Cs.svg

<svg xmlns="http://www.w3.org/2000/svg" width="22" height="22" version="1.1">
 <defs>
  <style id="current-color-scheme" type="text/css">
   .ColorScheme-Text { color:#31363b; } .ColorScheme-Highlight { color:#3daee9; }
  </style>
 </defs>
 <rect style="opacity:0" width="22" height="22" x="0" y="0"/>
 <path style="fill:none;stroke:currentColor;stroke-width:1.99999976;stroke-linecap:round;stroke-linejoin:bevel" class="ColorScheme-Text" d="m 9.0003166,13.998697 c 0,1 0,1 -1,0.999552 -0.39877,-1.79e-4 -1.742437,4.48e-4 -2,4.48e-4 -0.462291,0 -0.999999,0 -0.999999,-1 l 1.4e-5,-3.00045 -1.4e-5,-2.9995499 c -5e-6,-0.9999999 0,-0.9999999 0.999999,-0.9999999 0.432209,0 0.81111,-2.531e-4 1.000015,-4.492e-4 0.423096,-4.393e-4 0.45247,4.492e-4 0.999985,4.492e-4 1,0 1,0 1,0.9999999"/>
 <path style="fill:none;stroke:currentColor;stroke-width:1.99999976;stroke-linecap:round;stroke-linejoin:round" class="ColorScheme-Text" d="m 13.000054,14.000066 c 0,1 0,1 0.999998,1 0.359093,0 0.425299,2.18e-4 1.00001,3.2e-5 0.454553,-1.11e-4 -1.1e-5,-3.2e-5 0.999991,-3.2e-5 0,0 0.999992,0 0.999999,-1 l 8e-6,-1.00045 c 0,-4.2143841 -3.999999,0.211163 -3.988018,-3.9907041 -0.0025,-0.4205455 -0.01209,-0.7453845 -0.01209,-1.0088458 0,-0.9999999 0.999999,-0.9999999 0.999999,-0.9999999 0.251868,0 0.631706,-4.499e-4 1.00001,-4.492e-4 0.347679,0 0.741252,4.492e-4 0.999991,4.492e-4 0.999999,0 0.999999,0 0.999999,0.9999999"/>
</svg>

<svg xmlns="http://www.w3.org/2000/svg" width="12pt" height="12pt" version="1.1" viewBox="0 0 12 12">
 <g>
  <path style="fill:none;stroke-width:2;stroke-linecap:round;stroke-linejoin:bevel;stroke:rgb(19.215686%,21.176471%,23.137255%)" d="M 9 14 C 9 15 9 15 8 15 C 7.601562 15 6.257812 15 6 15 C 5.539062 15 5 15 5 14 L 5 8 C 5 7 5 7 6 7 C 6.429688 7 6.8125 7 7 7 C 7.421875 7 7.453125 7 8 7 C 9 7 9 7 9 8" transform="matrix(0.5,0,0,0.5,0.5,0.5)"/>
  <path style="fill:none;stroke-width:2;stroke-linecap:round;stroke-linejoin:round;stroke:rgb(19.215686%,21.176471%,23.137255%)" d="M 13 14 C 13 15 13 15 14 15 C 14.359375 15 14.421875 15 15 15 C 15.453125 15 15 15 16 15 C 16 15 17 15 17 14 L 17 13 C 17 8.789062 13 13.210938 13.015625 9.007812 C 13.007812 8.585938 13 8.265625 13 8 C 13 7 14 7 14 7 C 14.25 7 14.632812 7 15 7 C 15.34375 7 15.742188 7 16 7 C 17 7 17 7 17 8" transform="matrix(0.5,0,0,0.5,0.5,0.5)"/>
 </g>
</svg>
